X:1
T:Nobody's Darling But Mine - #164
C:Composed:G. W. Hunt; Arranged: JNO. Knell, 1879; then by Jimmie Davis 1930s
Z:Transcribed by Louise Brown and Polly Best
M:3/4
L:1/4
K:D
|"^VERSES"D|"D"F F F|F2 E/2D/2|"G"G, B,2-|B,2 G|"A"G F E|A, C B,|"D"A,3-|A,3
w:Come sit by my side lit-tle dar-lin'| _Come lay your cool hand on my brow_
w:You're~as sweet as the flow-ers in spring-time| _You're~as pure as the dew from the rose_
w:My mo-ther is dead and in hea-ven| _My dad-dy has bone down be-low_
w:Good-bye, _Good-bye lit-tle dar-lin'| _I'm leav-ing this cold world be-hind_
|F F F|F E D|"G"G, B,2-|B,2 G|"A"G F E|C D E|"D"D3-|D2|
w:Pro-mise me that you will nev-er| _Be no-bo-dy's dar-lin' but mine._
w:I~had ra-ther~be some-bo-dy's dar-lin'| _Than~a poor girl that no-bo-dy knows._
w:Sis-ter has gone to meet mo-ther| _and where I'll go no-bo-dy knows._
w:Pro-mise me that you will ne-ver| _Be no-bo-dy's dar-lin' but mine._
|"D"F "^CHORUS"F F|F E D|("G"G,3|B,2) G|"A"G F E|A, C B,|"D"A,3-|A,3
